X:12403
T:Highland Laddie
C:Traditional
H:
B:
O:Kevin Fraser
Z:Kevin Fraser
Q:1/4=90
K:Dmaj
M:none
M:none
M:2/4
L:1/16
R:March
U:V = !accent!
V:M transpose=1 name="Melody" " gstem=up stem=down " 
V:H transpose=1 name="Harmony" " gstem=up stem=down " 
V:C transpose=1 name="C-Harmony" " gstem=up stem=down " 
V:S cgstem=up stem=down dyn=up stafflines=1 clef=perc middle=G name="Snare" sname="Snare"" sname=snare
V:B clef=none name="Bass" " gstem=up stem=down dyn=up " 
V:T clef=none name="Tenor" " gstem=up stem=down dyn=up " 
V:BB clef=bass octave=-1 transpose=0 name="Brass Bass" sname="Bass" " " gstem=up stem=down " " 
V:BC transpose=0 name="Brass Chord" sname="Chord 1" " " gstem=up stem=down " " 
V:BD transpose=0 name="Brass Chord 2" sname="Chord 2" " " gstem=up stem=down " " 
V:P octave=-1 name="Piano" " gstem=up stem=down " 
% I:MIDI=program 110
I:MIDI=program 2
%%MIDI gracedivider 4
% %Score {M H BC BD BB }
%%Score {M}
[V:M]|: {g}A>B | {Gdc}d3e {g}f2a2     | {f}g>f{g}e>d {g}f4     | {gfg}f2e2 {gef}e2d>e       | {gfg}f2e2 {A}e2d<{g}B   |$
w:       hen o | tra e    che I       | vedi ve he a che       |  chete e hete a e           | chete e ende a ho
[V:M]|           {Gdc}d3e {g}f2a2     | {f}g>f{g}e>d  {g}f2e<f  | {Gdc}d2{e}B2 {gBd}B2{g}A<B | {Gdc}d2{e}B2 {gBd}B2  :|$
w:               tra e    che I       | vedi ve he a   che e ve| tra eo           hoto hen o | tra   eo hoto
[V:M]|: {gf}g2 | {ag}a>gf2 {gf}g>fe2    | {gfg}f>ed>e {g}f4      | {gfg}f2e2 {gef}e2d<e       | {gfg}f2e2 {A}e2{gf}g2  |$
w:       vili  |  dili di ve vili ve e  | chete e a e che        | chete e    hete a e        | chete e ende vili
[V:M]          | {ag}a>gf2 {gf}g>fe2    | {gfg}f>ed>e {g}f2{g}e<f    | {Gdc}d2{e}B2 {gBd}B2{g}A<B | {Gdc}d2{e}B2 {gBd}B2  :|$
w:               dili di ve vili ve e  | chete e a e che  he ve      | tra eo hoto hen o |  tra   eo hoto
[V:M]|: {g}AB  | {Gdc}d3e {g}f2A2     | {gBd}B2{G}A2 {g}f4   | {gfg}f2e2 {gef}e2d<e       | {gfg}f2e2 {A}e2d<{g}B    |$
w:       hen o | tra e    che en       | hoto hen che        |  chete e hete a e          | chete e ende a ho
[V:M]          | {Gdc}d3e {g}f2A2     | {gBd}B2{G}A2 {g}f2e<f | {Gdc}d2{e}B2 {gBd}B2{g}A<B | {Gdc}d2{e}B2 {gBd}B2  :|$
w:                tra e    che en       | hoto den che        |  tra eo hoto hen o |  tra   eo hoto
[V:M]|: {gf}g2  | {ag}a3g {gfg}f2{g}e<f | d2{g}B{GdG}e {g}f4   | {gfg}f2e2 {gef}e2d<e       | {gfg}f2e2 {A}e2{gf}g2  |$
w:        vili  |  dili di chete he ve  | a ho bare che        |  chete e    hete a e        | chete e ende vili
[V:M]          | {ag}a3g {gfg}f2{g}e<f | d2{g}B{GdG}e {g}f2e<f | {Gdc}d2{e}B2 {gBd}B2{g}A<B | {Gdc}d2{e}B2 {gBd}B2  :|$
w:                 dili di chete he ve  | a ho bare che        | tra eo hoto hen o |  tra   eo hoto

[V:BC][K:Ebmaj] |: z| E>F GB | A/2G/2F/2E/2 G2 | GF FE | GF FE |$ 
[V:BC] | E>F GB | A/2G/2F/2E/2 cB | EC CB, | EC C :| $
[V:BC] |: B| ce Be | Ae E2 | GF FG | AF FE | $
[V:BC] | EF DE | CD B,2 | GF FG | AF F :|$
[V:BC] |: B|E/2D/2E/2F/2 G2 | AF G2 | GF FE | GF FE | $
[V:BC] |E/2D/2E/2F/2 GB, | CB, GF | EC CB, | EC C :|$
[V:BC] |: B| ce Be | Ae E2 | GF FG | AF FE | $
[V:BC] | EF DE | CD B,2 | GF FG | AF F :|$
[V:BB][K:Ebmaj] |: z |E2 E2 | B,2 E2 | A,2 A,2 | B,2 B,2 | $
[V:BB] | E2 E2 | B,2 E2 | A,2 A,2 | B,2 B, :| $
[V:BB] |: F| C2 B2 | A2 G2 | A,2 A,2 | B,2 B,2 | $
[V:BB] | A2 G2 | F2 E2 | A,2 A,2 | B,2 B,- :|$
[V:BB] |:B, | E2 E2 | B,2 E2 | A,2 A,2 | B,2 B,2 |$
[V:BB] | E2 E2 |$ B,2 E2 |$ A,2 A,2 | B,2 B, :|$
[V:BB] |: F| C2 B2 | A2 G2 | A,2 A,2 | B,2 B,2 | $
[V:BB] | A2 G2 | F2 E2 | A,2 A,2 | B,2 B,- :|$
[V:BD][K:Ebmaj] |: z | z G z G | z F z G | z A z A | z F z F |$ 
[V:BD] | z G z G | z F z G | z A z A | z B, z :|$
[V:BD] |: a| z E z D | z C z B, | z A z A | z F z F | $
[V:BD] | z E z D | z C z B, | z A z A | z B, z :|$
[V:BD] |: z| z A z A | z F z F | z A z A | z F z F | $
[V:BD] | z G z G | z F z G | z A z A | z B, z :|$
[V:BD] |: a| z E z D | z C z B, | z A z A | z F z F | $
[V:BD] | z E z D | z C z B, | z A z A | z B, z :|$


